X:348
T:Pipers Frolic. RH.348
T:Trip To Galloway,aka. RH.348
R:jig
S:Rev.R.Harrison’s MS,c1815,Cumbria
O:England
A:Temple Sowerby,Cumbria
Z:vmp.Simon Wilson. Review PJH, 2008.
M:6/8
L:1/8
Q:3/8=120
K:D
B/c/|{F}dcB AFd|DFD AFD|{F}dcB AFD|EFA B2B/c/|!
{F}dcB AFd|DFD AFD|G/A/BG F/G/AF|EFA B2:|!
|:A|d2a afd|c2e ecA|{F}d2a afd|AFA B2A|!
dfa afd|cea ecA|dcB AFd|EFA B2:|

